public/assets/images/icon/wcuIcon1_2.svg

<svg width="80" height="80" viewBox="0 0 80 80" fill="none" xmlns="http://www.w3.org/2000/svg">
<rect opacity="0.2" x="0.5" y="0.5" width="79" height="79" rx="9.5" stroke="#7444FD"/>
<path opacity="0.952" fill-rule="evenodd" clip-rule="evenodd" d="M36.8498 15.046C38.8836 14.7944 40.3345 15.5744 41.2023 17.3861C41.3309 20.0171 41.4251 22.6542 41.4849 25.2976C47.0267 27.0643 50.2865 30.7786 51.264 36.4407C51.3017 39.8208 51.3395 43.2009 51.3771 46.5809C51.47 47.8387 51.8092 49.0273 52.3946 50.1467C54.1379 49.0452 56.041 48.6552 58.1038 48.9767C62.3702 49.9695 64.669 52.6253 65 56.944C64.7073 60.9972 62.5971 63.6158 58.669 64.7998C54.9363 65.4943 51.9782 64.3243 49.7944 61.2898C49.5185 60.7831 49.2735 60.2632 49.0595 59.7297C47.6295 59.6184 46.1975 59.5813 44.7635 59.6183C44.1065 62.142 42.5238 63.832 40.0153 64.6884C36.5148 65.5685 33.7072 64.5842 31.5928 61.7355C31.1826 61.0762 30.9 60.3705 30.7449 59.6183C26.7125 59.6369 22.6803 59.6183 18.6482 59.5626C16.532 58.8284 15.6841 57.3612 16.1045 55.1611C16.3798 54.3013 16.8886 53.6141 17.6307 53.0996C18.8927 52.705 20.1362 52.2593 21.3615 51.7624C22.9827 50.7414 23.8682 49.2743 24.0182 47.3609C24.152 43.7224 24.2274 40.0824 24.2443 36.4407C25.2188 30.7814 28.4784 27.0671 34.0234 25.2976C34.1176 22.7727 34.1741 20.2469 34.193 17.7204C34.5716 16.3258 35.4572 15.4344 36.8498 15.046ZM37.1889 16.9403C38.2162 16.7687 38.9511 17.1401 39.3935 18.0547C39.5751 20.3528 39.6129 22.6557 39.5065 24.9634C38.3383 24.8148 37.17 24.8148 36.0019 24.9634C35.9265 22.8462 35.9265 20.729 36.0019 18.6118C36.0726 17.8196 36.4683 17.2624 37.1889 16.9403ZM37.6411 26.6348C43.7687 27.0484 47.6313 30.1685 49.2291 35.995C49.3472 36.7332 49.4225 37.4761 49.4552 38.2236C49.4928 41.3066 49.5306 44.3894 49.5682 47.4724C49.6868 48.8631 50.1203 50.1446 50.8684 51.3167C49.1142 53.1418 48.3605 55.3147 48.6073 57.8354C38.9224 57.854 29.2375 57.8354 19.5526 57.7797C18.329 57.5398 17.8202 56.8155 18.0264 55.6068C18.143 55.2682 18.3503 54.9896 18.6482 54.7711C19.6267 54.437 20.6065 54.1027 21.5876 53.7682C24.2826 52.5275 25.7335 50.4288 25.9401 47.4724C25.9543 43.9419 26.0297 40.4132 26.1662 36.8864C26.8048 33.0288 28.8209 30.113 32.2146 28.1391C33.9297 27.2527 35.7386 26.7513 37.6411 26.6348ZM56.7471 50.7039C60.5739 51.0956 62.6466 53.1756 62.965 56.944C62.8848 59.5289 61.6788 61.4047 59.3473 62.5712C55.7123 63.7776 52.9425 62.7561 51.0379 59.5069C49.814 55.924 50.8504 53.194 54.1469 51.3167C54.9957 50.9754 55.8624 50.771 56.7471 50.7039ZM32.7799 59.6183C36.096 59.6183 39.4123 59.6183 42.7285 59.6183C41.5002 62.4154 39.3522 63.5111 36.2845 62.9055C34.5781 62.3563 33.4099 61.2606 32.7799 59.6183Z" fill="#7444FD"/>
<path fill-rule="evenodd" clip-rule="evenodd" d="M55.8427 52.4868C56.4456 52.4868 57.0486 52.4868 57.6515 52.4868C57.6515 53.6754 57.6515 54.864 57.6515 56.0526C58.8575 56.0526 60.0633 56.0526 61.2692 56.0526C61.2692 56.6469 61.2692 57.2412 61.2692 57.8355C60.0633 57.8355 58.8575 57.8355 57.6515 57.8355C57.6515 59.0241 57.6515 60.2126 57.6515 61.4013C57.0486 61.4013 56.4456 61.4013 55.8427 61.4013C55.8427 60.2126 55.8427 59.0241 55.8427 57.8355C54.6367 57.8355 53.4309 57.8355 52.225 57.8355C52.225 57.2412 52.225 56.6469 52.225 56.0526C53.4309 56.0526 54.6367 56.0526 55.8427 56.0526C55.8427 54.864 55.8427 53.6754 55.8427 52.4868Z" fill="#7444FD"/>
</svg>

<?xml version="1.0" encoding="UTF-8"?>
<svg id="Capa_1" xmlns="http://www.w3.org/2000/svg" version="1.1" viewBox="0 0 80 80">
  <!-- Generator: Adobe Illustrator 29.8.1, SVG Export Plug-In . SVG Version: 2.1.1 Build 2)  -->
  <defs>
    <style>
      .st0 {
        fill: none;
        opacity: .74;
        stroke: #129689;
      }

      .st0, .st1 {
        isolation: isolate;
      }

      .st2, .st1 {
        fill: #129689;
        fill-rule: evenodd;
      }

      .st1 {
        opacity: .95;
      }
    </style>
  </defs>
  <rect class="st0" x=".5" y=".5" width="79" height="79" rx="9.5" ry="9.5"/>
  <path class="st1" d="M36.85,15.05c2.03-.25,3.48.53,4.35,2.34.13,2.63.22,5.27.28,7.91,5.54,1.77,8.8,5.48,9.78,11.14.04,3.38.08,6.76.11,10.14.09,1.26.43,2.45,1.02,3.57,1.74-1.1,3.65-1.49,5.71-1.17,4.27.99,6.57,3.65,6.9,7.97-.29,4.05-2.4,6.67-6.33,7.86-3.73.69-6.69-.48-8.87-3.51-.28-.51-.52-1.03-.73-1.56-1.43-.11-2.86-.15-4.3-.11-.66,2.52-2.24,4.21-4.75,5.07-3.5.88-6.31-.1-8.42-2.95-.41-.66-.69-1.37-.85-2.12-4.03.02-8.06,0-12.1-.06-2.12-.73-2.96-2.2-2.54-4.4.28-.86.78-1.55,1.53-2.06,1.26-.39,2.51-.84,3.73-1.34,1.62-1.02,2.51-2.49,2.66-4.4.13-3.64.21-7.28.23-10.92.97-5.66,4.23-9.37,9.78-11.14.09-2.52.15-5.05.17-7.58.38-1.39,1.26-2.29,2.66-2.67ZM37.19,16.94c1.03-.17,1.76.2,2.2,1.11.18,2.3.22,4.6.11,6.91-1.17-.15-2.34-.15-3.5,0-.08-2.12-.08-4.23,0-6.35.07-.79.47-1.35,1.19-1.67ZM37.64,26.63c6.13.41,9.99,3.53,11.59,9.36.12.74.19,1.48.23,2.23.04,3.08.08,6.17.11,9.25.12,1.39.55,2.67,1.3,3.84-1.75,1.83-2.51,4-2.26,6.52-9.68.02-19.37,0-29.05-.06-1.22-.24-1.73-.96-1.53-2.17.12-.34.32-.62.62-.84.98-.33,1.96-.67,2.94-1,2.69-1.24,4.15-3.34,4.35-6.3.01-3.53.09-7.06.23-10.59.64-3.86,2.65-6.77,6.05-8.75,1.72-.89,3.52-1.39,5.43-1.5ZM56.75,50.7c3.83.39,5.9,2.47,6.22,6.24-.08,2.58-1.29,4.46-3.62,5.63-3.64,1.21-6.4.18-8.31-3.06-1.22-3.58-.19-6.31,3.11-8.19.85-.34,1.72-.55,2.6-.61ZM32.78,59.62h9.95c-1.23,2.8-3.38,3.89-6.44,3.29-1.71-.55-2.87-1.64-3.5-3.29Z"/>
  <path class="st2" d="M55.84,52.49h1.81v3.57h3.62v1.78h-3.62v3.57h-1.81v-3.57h-3.62v-1.78h3.62v-3.57Z"/>
</svg>
